optimized/20/solid/archive-box-x-mark.svg

<svg xmlns="http://www.w3.org/2000/svg" viewBox="0 0 20 20">
  <path d="M2 3C1.44772 3 1 3.44772 1 4V5C1 5.55228 1.44772 6 2 6H18C18.5523 6 19 5.55228 19 5V4C19 3.44772 18.5523 3 18 3H2Z"/>
  <path fill-rule="evenodd" d="M2 7.5H18L17.1885 15.2094C17.0813 16.2273 16.223 17 15.1995 17H4.80052C3.77701 17 2.91866 16.2273 2.81151 15.2094L2 7.5ZM7.21967 9.21967C7.51256 8.92678 7.98744 8.92678 8.28033 9.21967L10 10.9393L11.7197 9.21967C12.0126 8.92678 12.4874 8.92678 12.7803 9.21967C13.0732 9.51256 13.0732 9.98744 12.7803 10.2803L11.0607 12L12.7803 13.7197C13.0732 14.0126 13.0732 14.4874 12.7803 14.7803C12.4874 15.0732 12.0126 15.0732 11.7197 14.7803L10 13.0607L8.28033 14.7803C7.98744 15.0732 7.51256 15.0732 7.21967 14.7803C6.92678 14.4874 6.92678 14.0126 7.21967 13.7197L8.93934 12L7.21967 10.2803C6.92678 9.98744 6.92678 9.51256 7.21967 9.21967Z" clip-rule="evenodd"/>
</svg>

<svg xmlns="http://www.w3.org/2000/svg" viewBox="0 0 20 20" fill="currentColor" aria-hidden="true">
  <path d="M2 3a1 1 0 00-1 1v1a1 1 0 001 1h16a1 1 0 001-1V4a1 1 0 00-1-1H2z"/>
  <path fill-rule="evenodd" d="M2 7.5h16l-.811 7.71a2 2 0 01-1.99 1.79H4.802a2 2 0 01-1.99-1.79L2 7.5zm5.22 1.72a.75.75 0 011.06 0L10 10.94l1.72-1.72a.75.75 0 111.06 1.06L11.06 12l1.72 1.72a.75.75 0 11-1.06 1.06L10 13.06l-1.72 1.72a.75.75 0 01-1.06-1.06L8.94 12l-1.72-1.72a.75.75 0 010-1.06z" clip-rule="evenodd"/>
</svg>
